packages/vapor/resources/icons/svg/source-linkedin.svg

<?xml version="1.0" encoding="UTF-8" standalone="no"?>
<svg width="32px" height="32px" viewBox="0 0 32 32" version="1.1" xmlns="http://www.w3.org/2000/svg" xmlns:xlink="http://www.w3.org/1999/xlink" xmlns:sketch="http://www.bohemiancoding.com/sketch/ns">
    <!-- Generator: Sketch 3.2.2 (9983) - http://www.bohemiancoding.com/sketch -->
    <title>LinkedIn</title>
    <desc>Created with Sketch.</desc>
    <defs>
        <rect id="path-1" x="0" y="0" width="32" height="32" rx="2"></rect>
    </defs>
    <g id="Sources-Icons-32px" stroke="none" stroke-width="1" fill="none" fill-rule="evenodd" sketch:type="MSPage">
        <g id="LinkedIn" sketch:type="MSArtboardGroup">
            <g id="source-linkedin" sketch:type="MSLayerGroup">
                <mask id="mask-2" sketch:name="BG" fill="white">
                    <use xlink:href="#path-1"></use>
                </mask>
                <use id="BG" fill="#0F729F" sketch:type="MSShapeGroup" xlink:href="#path-1"></use>
                <path d="M6,13 L10,13 L10,27.0267767 L6,27.0267767 L6,13 Z M8.52502917,6 C9.91728993,6 11.0474473,7.12046993 11.0474473,8.4992035 C11.0474473,9.87953007 9.91728993,11 8.52502917,11 C7.12714474,11 6,9.87953007 6,8.4992035 C6,7.12046993 7.12714474,6 8.52502917,6 Z M13,13.3401675 L16.9972614,13.3401675 L16.9972614,15.2064812 L17.0544173,15.2064812 C17.610389,14.1322578 18.9719327,13 21.0004885,13 C25.2196382,13 26,15.8283898 26,19.5072963 L26,27 L21.8335801,27 L21.8335801,20.3578131 C21.8335801,18.7734364 21.8033663,16.7355684 19.6662719,16.7355684 C17.4962695,16.7355684 17.1650728,18.4609136 17.1650728,20.2427247 L17.1650728,27 L13,27 L13,13.3401675 Z" id="Fill-1" fill="#FFFFFF" sketch:type="MSShapeGroup" mask="url(#mask-2)"></path>
                <path d="M29,0 L8,32 L32,32 L32,0 L29,0 Z" id="shadow" opacity="0.102203825" fill="#000000" sketch:type="MSShapeGroup" mask="url(#mask-2)"></path>
            </g>
        </g>
    </g>
</svg>

<svg xmlns="http://www.w3.org/2000/svg" viewBox="0 0 32 32" enable-background="new 0 0 32 32">
  <defs>
    <filter id="1" filterUnits="userSpaceOnUse" x="6" y="6" width="20" height="21">
      <feColorMatrix type="matrix" values="1 0 0 0 0  0 1 0 0 0  0 0 1 0 0  0 0 0 1 0"/>
    </filter>
    <mask maskUnits="userSpaceOnUse" x="6" y="6" width="20" height="21" id="0">
      <g filter="url(#1)">
        <path fill="#fff" d="m2 0h28c1.1 0 2 .9 2 2v28c0 1.1-.9 2-2 2h-28c-1.1 0-2-.9-2-2v-28c0-1.1.9-2 2-2"/>
      </g>
    </mask>
  </defs>
  <path fill="#0077b5" d="m2 0h28c1.1 0 2 .9 2 2v28c0 1.1-.9 2-2 2h-28c-1.1 0-2-.9-2-2v-28c0-1.1.9-2 2-2"/>
  <path mask="url(#0)" fill="#fff"
        d="m6 13h4v14h-4v-14m2.5-7c1.4 0 2.5 1.1 2.5 2.5 0 1.4-1.1 2.5-2.5 2.5-1.4 0-2.5-1.1-2.5-2.5 0-1.4 1.1-2.5 2.5-2.5m4.5 7.3h4v1.9h.1c.5-1.1 1.9-2.2 3.9-2.2 4.2 0 5 2.8 5 6.5v7.5h-4.2v-6.6c0-1.6 0-3.6-2.2-3.6-2.2 0-2.5 1.7-2.5 3.5v6.7h-4.1v-13.7"/>
</svg>
